Systematic/src/svg/Microsoft - Xbox One-content.svg

<svg xmlns="http://www.w3.org/2000/svg" xml:space="preserve" width="330.667" height="330.667"><defs><clipPath id="a" clipPathUnits="userSpaceOnUse"><path d="M0 256h256V0H0Z"/></clipPath><clipPath id="b" clipPathUnits="userSpaceOnUse"><path d="M4 252h248V4H4Z"/></clipPath></defs><g clip-path="url(#a)" transform="matrix(1.33333 0 0 -1.33333 -5.333 336)"><g clip-path="url(#b)" style="opacity:.5"><path d="M0 0c11.046 0 20-8.954 20-20S11.046-40 0-40s-20 8.954-20 20S-11.046 0 0 0m-87.676-107.682C-64.254-131.102-33.116-144 0-144c33.124 0 64.264 12.898 87.684 36.318C111.103-84.262 124-53.122 124-20s-12.897 64.262-36.316 87.682S33.124 104 0 104c-33.116 0-64.254-12.898-87.676-36.318C-111.1 44.26-124 13.121-124-20c0-33.12 12.9-64.26 36.324-87.682" style="fill:#fff;fill-opacity:1;fill-rule:nonzero;stroke:none" transform="translate(128 148)"/></g><path d="M0 0c23.992 0 43.505-19.517 43.505-43.505C43.505-67.492 23.992-87.01 0-87.01c-23.988 0-43.5 19.518-43.5 43.505S-23.988 0 0 0m0-159.505c64.07 0 116 51.935 116 116 0 64.066-51.93 116-116 116-64.051 0-116-51.934-116-116 0-64.065 51.949-116 116-116" style="fill:#ccc;fill-opacity:1;fill-rule:nonzero;stroke:none" transform="translate(128 171.505)"/><path d="M0 0c7.596 0 13.787-6.176 13.787-13.776 0-7.604-6.191-13.785-13.787-13.785-7.6 0-13.777 6.181-13.777 13.785C-13.777-6.176-7.6 0 0 0m-.001-59.776c25.364 0 46.003 20.651 46.003 46s-20.639 46-46.003 46c-25.338 0-45.997-20.651-45.997-46s20.659-46 45.997-46" style="fill:#e6e6e6;fill-opacity:1;fill-rule:nonzero;stroke:none" transform="translate(127.998 141.776)"/><path d="M0 0c-43.746 0-81.841-24.229-101.602-60h203.207C81.85-24.229 43.76 0 0 0" style="fill:#00b800;fill-opacity:1;fill-rule:nonzero;stroke:none" transform="translate(127.998 244)"/></g></svg>

<?xml version="1.0" encoding="UTF-8" standalone="no"?>
<svg
   xmlns:dc="http://purl.org/dc/elements/1.1/"
   xmlns:cc="http://creativecommons.org/ns#"
   xmlns:rdf="http://www.w3.org/1999/02/22-rdf-syntax-ns#"
   xmlns:svg="http://www.w3.org/2000/svg"
   xmlns="http://www.w3.org/2000/svg"
   viewBox="0 0 330.66665 330.66665"
   height="330.66666"
   width="330.66666"
   xml:space="preserve"
   id="svg2"
   version="1.1"><metadata
     id="metadata8"><rdf:RDF><cc:Work
         rdf:about=""><dc:format>image/svg+xml</dc:format><dc:type
           rdf:resource="http://purl.org/dc/dcmitype/StillImage" /></cc:Work></rdf:RDF></metadata><defs
     id="defs6"><clipPath
       id="clipPath18"
       clipPathUnits="userSpaceOnUse"><path
         id="path16"
         d="M 0,256 H 256 V 0 H 0 Z" /></clipPath><clipPath
       id="clipPath26"
       clipPathUnits="userSpaceOnUse"><path
         id="path24"
         d="M 4,252 H 252 V 4 H 4 Z" /></clipPath></defs><g
     transform="matrix(1.3333333,0,0,-1.3333333,-5.3333332,335.99999)"
     id="g10"><g
       id="g12"><g
         clip-path="url(#clipPath18)"
         id="g14"><g
           id="g20"><g
             id="g22" /><g
             id="g34"><g
               style="opacity:0.5"
               id="g32"
               clip-path="url(#clipPath26)"><g
                 id="g30"
                 transform="translate(128,148)"><path
                   id="path28"
                   style="fill:#ffffff;fill-opacity:1;fill-rule:nonzero;stroke:none"
                   d="m 0,0 c 11.046,0 20,-8.954 20,-20 0,-11.046 -8.954,-20 -20,-20 -11.046,0 -20,8.954 -20,20 0,11.046 8.954,20 20,20 M -87.676,-107.682 C -64.254,-131.102 -33.116,-144 0,-144 c 33.124,0 64.264,12.898 87.684,36.318 C 111.103,-84.262 124,-53.122 124,-20 124,13.123 111.103,44.262 87.684,67.682 64.264,91.102 33.124,104 0,104 -33.116,104 -64.254,91.102 -87.676,67.682 -111.1,44.26 -124,13.121 -124,-20 c 0,-33.12 12.9,-64.26 36.324,-87.682" /></g></g></g></g><g
           transform="translate(128,171.5049)"
           id="g36"><path
             id="path38"
             style="fill:#cccccc;fill-opacity:1;fill-rule:nonzero;stroke:none"
             d="M 0,0 C 23.992,0 43.505,-19.517 43.505,-43.505 43.505,-67.492 23.992,-87.01 0,-87.01 c -23.988,0 -43.5,19.518 -43.5,43.505 C -43.5,-19.517 -23.988,0 0,0 m 0,-159.505 c 64.07,0 116,51.935 116,116 0,64.066 -51.93,116 -116,116 -64.051,0 -116,-51.934 -116,-116 0,-64.065 51.949,-116 116,-116" /></g><g
           transform="translate(127.9976,141.7759)"
           id="g40"><path
             id="path42"
             style="fill:#e6e6e6;fill-opacity:1;fill-rule:nonzero;stroke:none"
             d="m 0,0 c 7.596,0 13.787,-6.176 13.787,-13.776 0,-7.604 -6.191,-13.785 -13.787,-13.785 -7.6,0 -13.777,6.181 -13.777,13.785 C -13.777,-6.176 -7.6,0 0,0 m -0.001,-59.776 c 25.364,0 46.003,20.651 46.003,46 0,25.349 -20.639,46 -46.003,46 -25.338,0 -45.997,-20.651 -45.997,-46 0,-25.349 20.659,-46 45.997,-46" /></g><g
           transform="translate(127.998,244)"
           id="g44"><path
             id="path46"
             style="fill:#00b800;fill-opacity:1;fill-rule:nonzero;stroke:none"
             d="M 0,0 C -43.746,0 -81.841,-24.229 -101.602,-60 H 101.605 C 81.85,-24.229 43.76,0 0,0" /></g></g></g></g></svg>
